svgs/duotone/circle-left.svg

<svg xmlns="http://www.w3.org/2000/svg" viewBox="0 0 512 512"><!--! Font Awesome Pro 6.3.0 by @fontawesome - https://fontawesome.com License - https://fontawesome.com/license (Commercial License) Copyright 2023 Fonticons, Inc. --><defs><style>.fa-secondary{opacity:.4}</style></defs><path class="fa-primary" d="M246.1 129.2C252.1 131.7 256 137.5 256 144v64h96c17.67 0 32 14.33 32 32v32c0 17.67-14.33 32-32 32h-96v64c0 6.469-3.891 12.31-9.875 14.78c-5.984 2.484-12.86 1.109-17.44-3.469l-112-112c-6.248-6.248-6.248-16.38 0-22.62l112-112C233.3 128.1 240.1 126.7 246.1 129.2z"/><path class="fa-secondary" d="M0 256c0 141.4 114.6 256 256 256s256-114.6 256-256c0-141.4-114.6-256-256-256S0 114.6 0 256zM246.1 129.2C252.1 131.7 256 137.5 256 144v64h96c17.67 0 32 14.33 32 32v32c0 17.67-14.33 32-32 32h-96v64c0 6.469-3.891 12.31-9.875 14.78c-5.984 2.484-12.86 1.109-17.44-3.469l-112-112c-6.248-6.248-6.248-16.38 0-22.62l112-112C233.3 128.1 240.1 126.7 246.1 129.2z"/></svg>

<svg xmlns="http://www.w3.org/2000/svg" viewBox="0 0 512 512"><!-- Font Awesome Pro 6.0.0-alpha2 by @fontawesome - https://fontawesome.com License - https://fontawesome.com/license (Commercial License) --><defs><style>.fa-secondary{opacity:.4}</style></defs><path d="M16 256C16 388.58 123.42 496 256 496S496 388.58 496 256C496 123.418 388.58 16 256 16S16 123.418 16 256ZM246.125 129.219C252.109 131.688 256 137.531 256 144V208H352C369.673 208 384 222.327 384 240V272C384 289.673 369.673 304 352 304H256V368C256 374.469 252.109 380.312 246.125 382.781C240.141 385.266 233.266 383.891 228.687 379.313L116.687 267.313C110.44 261.065 110.44 250.935 116.687 244.688L228.687 132.688C233.266 128.109 240.141 126.734 246.125 129.219Z" class="fa-secondary"/><path d="M246.123 129.219C252.108 131.688 255.998 137.531 255.998 144V208H351.998C369.671 208 383.998 222.327 383.998 240V272C383.998 289.673 369.671 304 351.998 304H255.998V368C255.998 374.469 252.108 380.312 246.123 382.781C240.139 385.266 233.264 383.891 228.686 379.313L116.686 267.313C110.438 261.065 110.438 250.935 116.686 244.688L228.686 132.688C233.264 128.109 240.139 126.734 246.123 129.219Z" class="fa-primary"/></svg>
